lib/flags/s/336.svg

<svg xmlns="http://www.w3.org/2000/svg" fill="none" viewBox="0 0 16 12"><mask id="336_svg__a" width="16" height="12" x="0" y="0" mask-type="alpha" maskUnits="userSpaceOnUse"><path fill="#fff" d="M0 0H16V12H0z"/></mask><g mask="url(#336_svg__a)"><path fill="#F7FCFF" fill-rule="evenodd" d="M0 0H16V12H0V0Z" clip-rule="evenodd"/><path fill="#FFDC17" fill-rule="evenodd" d="M0 0H7V12H0V0Z" clip-rule="evenodd"/><path fill="#AF0100" d="M11.3908 6.37549 11.2182 6.38673C11.2594 6.97962 11.3868 7.4376 11.603 7.7608 11.9516 8.28202 12.4116 8.68502 12.7194 8.68502 12.7894 8.68502 12.8056 8.71098 12.7826 8.77509 12.7498 8.86624 12.6461 8.95589 12.5127 8.99029 12.2908 9.04751 11.7861 9.07713 11.0073 9.07713V9.24457C11.8017 9.24457 12.3155 9.21442 12.5572 9.15209 12.7449 9.10368 12.8938 8.97492 12.9459 8.83015 13.0061 8.66272 12.9152 8.51757 12.7194 8.51757 12.4908 8.51757 12.0667 8.14603 11.7482 7.6698 11.5502 7.37382 11.4302 6.94234 11.3908 6.37549zM10.5735 6.37549 10.7461 6.38673C10.7049 6.97962 10.5775 7.4376 10.3613 7.7608 10.0127 8.28202 9.55269 8.68502 9.24486 8.68502 9.17494 8.68502 9.15868 8.71098 9.18174 8.77509 9.21453 8.86624 9.31823 8.95589 9.45164 8.99029 9.67353 9.04751 10.1782 9.07713 10.957 9.07713V9.24457C10.1626 9.24457 9.64881 9.21442 9.40711 9.15209 9.2194 9.10368 9.07046 8.97492 9.01838 8.83015 8.95816 8.66272 9.04905 8.51757 9.24486 8.51757 9.47349 8.51757 9.89762 8.14603 10.2161 7.6698 10.4141 7.37382 10.5341 6.94234 10.5735 6.37549z"/><path fill="#F4B300" fill-rule="evenodd" d="M14.0334 3.39917L9.46272 6.96217C9.30268 6.91003 9.12796 6.8815 8.94596 6.8815C8.2044 6.8815 7.5838 7.35517 7.5838 7.96987C7.5838 8.58457 8.2044 9.05824 8.94596 9.05824C9.03101 9.05824 9.11447 9.05201 9.19558 9.04005C9.12055 8.98146 9.06451 8.90822 9.03649 8.83034C9.00279 8.73664 9.01641 8.64992 9.06927 8.59171C9.02908 8.5957 8.98792 8.59778 8.94596 8.59778C8.44563 8.59778 8.05948 8.30304 8.05948 7.96987C8.05948 7.63669 8.44563 7.34196 8.94596 7.34196C9.4463 7.34196 9.83245 7.63669 9.83245 7.96987C9.83245 8.0718 9.79631 8.17013 9.73181 8.25753C9.74395 8.2467 9.75613 8.23559 9.76835 8.22421C9.92676 8.07672 9.5708 8.6852 9.26297 8.6852C9.19305 8.6852 9.17679 8.71117 9.19985 8.77528C9.23056 8.86065 9.32349 8.94472 9.44477 8.98329C9.94616 8.82652 10.3081 8.43932 10.3081 7.96987C10.3081 7.77784 10.2476 7.59957 10.1417 7.44521L12.5981 5.3604L12.7625 5.53027L12.8809 5.42294L13.2912 5.72703L13.1196 5.8593L13.4698 6.28498L14.1763 5.74032L14.1883 5.73413L14.1862 5.7327L14.23 5.69894L13.8798 5.27325L13.7105 5.40378L13.2517 5.08659L13.3055 5.03781L13.1579 4.88531L13.3798 4.69693L13.4976 4.81865L13.6242 4.7039L14.0219 5.01878L13.8548 5.14767L14.205 5.57336L14.8102 5.10678L14.8795 5.06883L14.8694 5.06111L14.9652 4.98731L14.6149 4.56162L14.4171 4.71411L13.9814 4.37984L14.0406 4.32619L13.9396 4.22184L14.3918 3.83802L14.0334 3.39917Z" clip-rule="evenodd"/><path fill="#BFBFBF" fill-rule="evenodd" d="M11.6919 7.96968C11.6919 7.69339 11.8173 7.44559 12.0226 7.25649L9.39787 5.22381L9.36795 5.24686L9.44446 5.31625L9.23749 5.53008L9.12852 5.43125L8.72674 5.74067L8.88038 5.85911L8.53017 6.2848L7.8312 5.74594L7.8117 5.73394L7.81377 5.73251L7.76998 5.69875L8.12019 5.27306L8.28951 5.4036L8.7483 5.0864L8.69453 5.03762L8.89285 4.83272L8.66176 4.65376L8.50236 4.81846L8.38059 4.70802L7.9879 5.02618L8.14525 5.14748L7.79504 5.57317L7.20906 5.12143L7.1205 5.06864L7.13057 5.06092L7.03484 4.98712L7.38505 4.56143L7.58285 4.71392L8.01855 4.37965L7.95939 4.326L8.07898 4.20244L7.60816 3.83783L7.90532 3.47827L12.4462 6.99482C12.6301 6.92193 12.8369 6.88131 13.054 6.88131C13.7956 6.88131 14.4162 7.35498 14.4162 7.96968C14.4162 8.58438 13.7956 9.05805 13.054 9.05805C12.969 9.05805 12.8855 9.05182 12.8044 9.03986C12.8795 8.98127 12.9355 8.90803 12.9635 8.83015C12.9972 8.73645 12.9836 8.64973 12.9307 8.59152C12.9709 8.59551 13.0121 8.59759 13.054 8.59759C13.5544 8.59759 13.9405 8.30286 13.9405 7.96968C13.9405 7.63651 13.5544 7.34177 13.054 7.34177C12.5537 7.34177 12.1676 7.63651 12.1676 7.96968C12.1676 8.07161 12.2037 8.16994 12.2682 8.25734C12.2561 8.24651 12.2439 8.2354 12.2316 8.22402C12.0732 8.07653 12.4292 8.68501 12.737 8.68501C12.807 8.68501 12.8232 8.71098 12.8002 8.77509C12.7694 8.86047 12.6765 8.94453 12.5552 8.9831C12.0538 8.82633 11.6919 8.43914 11.6919 7.96968Z" clip-rule="evenodd"/><path fill="#AF0100" fill-rule="evenodd" d="M10.8703 5.89771C10.8344 5.89771 10.8054 5.92675 10.8054 5.96257V6.23259H10.5655C10.5308 6.23259 10.5027 6.2607 10.5027 6.29538C10.5027 6.33006 10.5308 6.35817 10.5655 6.35817H10.8054V9.93517C10.8054 9.97099 10.8344 10 10.8703 10H11C11.0358 10 11.0648 9.97099 11.0648 9.93517V6.35817H11.4345C11.4692 6.35817 11.4973 6.33006 11.4973 6.29538C11.4973 6.2607 11.4692 6.23259 11.4345 6.23259H11.0648V5.96257C11.0648 5.92675 11.0358 5.89771 11 5.89771H10.8703Z" clip-rule="evenodd"/><path fill="#AF0100" fill-rule="evenodd" d="M10.9351 10.0082C11.0784 10.0082 11.1946 9.95016 11.1946 9.87851C11.1946 9.80686 11.0784 9.74878 10.9351 9.74878C10.7918 9.74878 10.6757 9.80686 10.6757 9.87851C10.6757 9.95016 10.7918 10.0082 10.9351 10.0082Z" clip-rule="evenodd"/><path fill="#F4B300" fill-rule="evenodd" d="M10 2.9C10 2.40294 10.4029 2 10.9 2C11.3971 2 11.8 2.40294 11.8 2.9V4.52174H10L10 2.9Z" clip-rule="evenodd"/><path fill="#AF0100" fill-rule="evenodd" d="M10.8919 4.60959C11.3934 4.60959 11.8 4.54183 11.8 4.45824C11.8 4.37465 11.3934 4.30688 10.8919 4.30688C10.3903 4.30688 9.98376 4.37465 9.98376 4.45824C9.98376 4.54183 10.3903 4.60959 10.8919 4.60959Z" clip-rule="evenodd"/></g></svg>

<svg xmlns="http://www.w3.org/2000/svg" fill="none" viewBox="0 0 16 12"><mask id="336_svg__a" width="16" height="12" x="0" y="0" maskUnits="userSpaceOnUse"><path fill="#fff" d="M0 0h16v12H0z"/></mask><g mask="url(#336_svg__a)"><path fill="#F7FCFF" fill-rule="evenodd" d="M0 0h16v12H0V0z" clip-rule="evenodd"/><path fill="#FFDC17" fill-rule="evenodd" d="M0 0h7v12H0V0z" clip-rule="evenodd"/><path fill="#AF0100" d="M11.39 6.376l-.172.01c.041.594.169 1.052.385 1.375.349.521.809.924 1.117.924.07 0 .086.026.063.09-.033.091-.137.18-.27.215-.222.058-.727.087-1.506.087v.168c.795 0 1.309-.03 1.55-.093.188-.048.337-.177.389-.322.06-.167-.03-.312-.226-.312-.23 0-.653-.372-.972-.848-.198-.296-.318-.728-.357-1.294zm-.817 0l.173.01c-.041.594-.168 1.052-.385 1.375-.348.521-.808.924-1.116.924-.07 0-.086.026-.063.09.033.091.136.18.27.215.222.058.726.087 1.505.087v.168c-.794 0-1.308-.03-1.55-.093-.188-.048-.337-.177-.389-.322-.06-.167.031-.312.227-.312.228 0 .653-.372.971-.848.198-.296.318-.728.357-1.294z"/><path fill="#F4B300" fill-rule="evenodd" d="M14.034 3.399L9.463 6.962a1.67 1.67 0 00-.517-.08c-.742 0-1.362.473-1.362 1.088 0 .614.62 1.088 1.362 1.088.085 0 .169-.006.25-.018a.479.479 0 01-.16-.21c-.033-.093-.02-.18.033-.238-.04.004-.081.006-.123.006-.5 0-.886-.295-.886-.628s.386-.628.886-.628.887.295.887.628c0 .102-.037.2-.101.287l.036-.033c.159-.147-.197.461-.505.461-.07 0-.086.026-.063.09.03.086.124.17.245.208.501-.157.863-.544.863-1.013a.92.92 0 00-.166-.525l2.456-2.085.165.17.118-.107.41.304-.171.132.35.426.706-.545.012-.006-.002-.001.044-.034-.35-.426-.17.13-.458-.317.053-.048-.147-.153.222-.188.118.122.126-.115.398.315-.167.129.35.425.605-.466.07-.038-.01-.008.095-.074-.35-.426-.198.153-.435-.334.059-.054-.101-.104.452-.384-.358-.439z" clip-rule="evenodd"/><path fill="#BFBFBF" fill-rule="evenodd" d="M11.692 7.97c0-.277.125-.524.33-.713L9.399 5.224l-.03.023.077.07-.207.213-.11-.099-.401.31.153.118-.35.426-.699-.539-.02-.012.003-.001-.044-.034.35-.426.17.13.458-.317-.053-.048.198-.205-.231-.18-.16.166-.121-.11-.393.317.157.122-.35.425-.586-.452-.088-.052.01-.008-.096-.074.35-.426.198.153.436-.334-.06-.054.12-.123-.47-.365.296-.36 4.541 3.517c.184-.073.39-.114.608-.114.742 0 1.362.474 1.362 1.089 0 .614-.62 1.088-1.362 1.088a1.72 1.72 0 01-.25-.018.479.479 0 00.16-.21c.033-.093.02-.18-.033-.238.04.004.081.006.123.006.5 0 .887-.295.887-.628s-.387-.628-.887-.628-.886.295-.886.628c0 .102.036.2.1.287a2.008 2.008 0 01-.036-.033c-.159-.147.197.461.505.461.07 0 .086.026.063.09-.03.086-.123.17-.245.208-.501-.157-.863-.544-.863-1.013z" clip-rule="evenodd"/><path fill="#AF0100" fill-rule="evenodd" d="M10.87 5.898a.065.065 0 00-.064.065v.27h-.24a.063.063 0 100 .125h.24v3.577c0 .036.029.065.064.065H11a.065.065 0 00.065-.065V6.358h.37a.063.063 0 100-.125h-.37v-.27A.065.065 0 0011 5.898h-.13z" clip-rule="evenodd"/><path fill="#AF0100" fill-rule="evenodd" d="M10.935 10.008c.143 0 .26-.058.26-.13 0-.071-.117-.13-.26-.13-.143 0-.26.059-.26.13 0 .072.117.13.26.13z" clip-rule="evenodd"/><path fill="#F4B300" fill-rule="evenodd" d="M10 2.9a.9.9 0 111.8 0v1.622H10V2.9z" clip-rule="evenodd"/><path fill="#AF0100" fill-rule="evenodd" d="M10.892 4.61c.502 0 .908-.068.908-.152 0-.083-.407-.151-.908-.151-.502 0-.908.068-.908.151 0 .084.406.152.908.152z" clip-rule="evenodd"/></g></svg>
